;FLAVOR:Marlin
;TIME:4698
;Filament used: 3.36835m
;Layer height: 0.2
;MINX:69.122
;MINY:73.492
;MINZ:0.3
;MAXX:130.877
;MAXY:126.946
;MAXZ:36.5
;Generated with Cura_SteamEngine 4.13.1
M140 S60
M105
M190 S60
M104 S200
M105
M109 S200
M82 ;absolute extrusion mode
G21 ;metric values
 G90 ;absolute positioning
 M82 ;set extruder to absolute mode
 M107 ;start with the fan off
 G28 X0 Y0 ;move X/Y to min endstops
 G28 Z0 ;move Z to min endstops
 G1 Z15.0 F120 ;move the platform down 15mm
 G92 E0 ;zero the extruded length
 G1 F200 E6 ;extrude 6 mm of feed stock
 G92 E0 ;zero the extruded length again
 G1 F120 
 ;Put printing message on LCD screen
 M117 Printing...
G92 E0
G92 E0
G1 F1500 E-6.5
;LAYER_COUNT:182
;LAYER:0
M107
G0 F3600 X83.519 Y76.401 Z0.3
;TYPE:SKIRT
G1 F1500 E0
G1 F1800 X84.07 Y75.836 E0.03937
G1 X84.676 Y75.329 E0.07879
G1 X85.33 Y74.887 E0.11817
G1 X86.025 Y74.512 E0.15757
G1 X87.116 Y74.092 E0.2159
G1 X87.994 Y73.827 E0.26165
G1 X88.761 Y73.637 E0.30107
G1 X89.543 Y73.526 E0.34048
G1 X90.332 Y73.494 E0.37988
G1 X91.12 Y73.543 E0.41926
G1 X91.899 Y73.671 E0.45865
G1 X92.661 Y73.877 E0.49803
G1 X93.399 Y74.159 E0.53745
G1 X93.828 Y74.378 E0.56148
G1 X94.488 Y74.224 E0.59529
G1 X95.272 Y74.124 E0.63472
G1 X95.707 Y74.107 E0.65644
G1 X95.843 Y74.064 E0.66355
G1 X96.792 Y73.792 E0.71281
G1 X97.561 Y73.613 E0.7522
G1 X98.344 Y73.513 E0.79158
G1 X99.134 Y73.492 E0.83101
G1 X99.921 Y73.552 E0.87038
G1 X100.58 Y73.67 E0.90378
G1 X101.27 Y73.551 E0.93872
G1 X102.058 Y73.495 E0.97813
G1 X102.847 Y73.52 E1.01751
G1 X103.63 Y73.625 E1.05693
G1 X104.463 Y73.827 E1.09969
G1 X105.365 Y74.101 E1.14672
G1 X105.877 Y74.101 E1.17226
G1 X106.666 Y74.141 E1.21168
G1 X107.446 Y74.26 E1.25104
G1 X107.996 Y74.402 E1.27938
G1 X108.377 Y74.203 E1.30083
G1 X109.11 Y73.91 E1.34021
G1 X109.869 Y73.693 E1.37959
G1 X110.647 Y73.553 E1.41903
G1 X111.434 Y73.493 E1.45841
G1 X112.223 Y73.512 E1.49778
G1 X113.007 Y73.611 E1.53721
G1 X113.782 Y73.791 E1.5769
G1 X114.729 Y74.062 E1.62605
G1 X115.476 Y74.317 E1.66543
G1 X116.194 Y74.647 E1.70485
G1 X116.874 Y75.048 E1.74423
G1 X117.511 Y75.515 E1.78364
G1 X118.097 Y76.044 E1.82303
G1 X118.627 Y76.63 E1.86244
G1 X119.094 Y77.266 E1.90181
G1 X119.415 Y77.795 E1.93268
G1 X119.776 Y78.497 E1.97206
G1 X120.063 Y79.233 E2.01148
G1 X120.275 Y79.994 E2.05089
G1 X120.408 Y80.772 E2.09027
G1 X120.463 Y81.56 E2.12967
G1 X120.437 Y82.349 E2.16906
G1 X120.332 Y83.132 E2.20847
G1 X120.228 Y83.606 E2.23268
G1 X118.955 Y88.66 E2.4927
G1 X120.634 Y88.911 E2.5774
G1 X121.988 Y88.911 E2.64495
G1 X122.777 Y88.951 E2.68437
G1 X123.557 Y89.07 E2.72373
G1 X124.322 Y89.268 E2.76315
G1 X125.177 Y89.593 E2.80879
G1 X125.668 Y89.813 E2.83563
G1 X126.372 Y90.172 E2.87506
G1 X127.035 Y90.6 E2.91443
G1 X127.422 Y90.897 E2.93876
G1 X127.837 Y91.237 E2.96553
G1 X128.422 Y91.768 E3.00495
G1 X128.95 Y92.355 E3.04434
G1 X129.416 Y92.993 E3.08375
G1 X129.815 Y93.674 E3.12313
G1 X130.109 Y94.308 E3.158
G1 X130.293 Y94.756 E3.18216
G1 X130.556 Y95.5 E3.22153
G1 X130.742 Y96.268 E3.26095
G1 X130.849 Y97.05 E3.30033
G1 X130.877 Y97.839 E3.33972
G1 X130.808 Y98.76 E3.38579
G1 X130.738 Y99.28 E3.41197
G1 X130.593 Y100.056 E3.45136
G1 X130.371 Y100.814 E3.49076
G1 X129.929 Y101.835 E3.54627
G1 X129.77 Y102.141 E3.56347
G1 X129.371 Y102.823 E3.60289
G1 X128.905 Y103.46 E3.64227
G1 X128.377 Y104.048 E3.6817
G1 X128.006 Y104.397 E3.70711
G1 X127.501 Y104.842 E3.74069
G1 X126.883 Y105.334 E3.7801
G1 X126.218 Y105.76 E3.8195
G1 X125.514 Y106.117 E3.85888
G1 X124.777 Y106.401 E3.89828
G1 X123.994 Y106.613 E3.93875
G1 X123.887 Y106.65 E3.9444
G1 X123.118 Y106.828 E3.98378
G1 X122.503 Y106.912 E4.01475
G1 X122.059 Y106.955 E4.037
G1 X120.718 Y107.458 E4.10846
G1 X120.579 Y107.529 E4.11625
G1 X119.859 Y107.853 E4.15564
G1 X119.11 Y108.103 E4.19503
G1 X118.339 Y108.276 E4.23445
G1 X117.555 Y108.37 E4.27385
G1 X116.765 Y108.385 E4.31327
G1 X115.978 Y108.319 E4.35267
G1 X115.202 Y108.175 E4.39204
G1 X114.965 Y108.105 E4.40437
G1 X114.902 Y108.238 E4.41171
G1 X114.527 Y108.932 E4.45107
G1 X114.24 Y109.37 E4.4772
G1 X113.657 Y110.199 E4.52776
G1 X113.356 Y110.6 E4.55277
G1 X112.56 Y111.454 E4.61102
G1 X111.911 Y112.054 E4.65511
G1 X111.021 Y112.764 E4.71191
G1 X110.214 Y113.25 E4.75891
G1 X109.778 Y113.478 E4.78346
G1 X109.878 Y113.695 E4.79538
G1 X110.255 Y114.693 E4.8486
G1 X110.496 Y115.445 E4.888
G1 X110.66 Y116.217 E4.92737
G1 X110.745 Y117.002 E4.96677
G1 X110.75 Y117.792 E5.00618
G1 X110.676 Y118.578 E5.04557
G1 X110.522 Y119.352 E5.08494
G1 X110.213 Y120.314 E5.13535
G1 X109.852 Y121.228 E5.18438
G1 X109.525 Y121.947 E5.22378
G1 X109.127 Y122.629 E5.26318
G1 X108.662 Y123.268 E5.30261
G1 X108.135 Y123.856 E5.342
G1 X107.555 Y124.384 E5.38113
G1 X106.83 Y124.981 E5.42799
G1 X106.196 Y125.452 E5.46739
G1 X105.517 Y125.856 E5.50681
G1 X104.802 Y126.189 E5.54616
G1 X104.056 Y126.448 E5.58556
G1 X103.489 Y126.591 E5.61473
G1 X102.611 Y126.777 E5.65951
G1 X101.831 Y126.901 E5.69891
G1 X101.042 Y126.946 E5.73834
G1 X100.253 Y126.911 E5.77774
G1 X99.432 Y126.788 E5.81915
G1 X98.708 Y126.64 E5.85602
G1 X97.943 Y126.443 E5.89543
G1 X97.202 Y126.169 E5.93485
G1 X96.493 Y125.822 E5.97423
G1 X95.621 Y125.261 E6.02596
G1 X94.88 Y124.711 E6.072
G1 X94.271 Y124.209 E6.11137
G1 X93.715 Y123.648 E6.15078
G1 X93.219 Y123.033 E6.1902
G1 X92.788 Y122.372 E6.22957
G1 X92.426 Y121.67 E6.26897
G1 X92.164 Y121.016 E6.30412
G1 X91.807 Y119.992 E6.35822
G1 X91.585 Y119.234 E6.39763
G1 X91.441 Y118.457 E6.43705
G1 X91.376 Y117.67 E6.47645
G1 X91.391 Y116.881 E6.51582
G1 X91.486 Y116.097 E6.55522
G1 X91.659 Y115.327 E6.59459
G1 X91.893 Y114.621 E6.6317
G1 X92.218 Y113.776 E6.67687
G1 X91.94 Y113.655 E6.692
G1 X91.373 Y113.344 E6.72426
G1 X90.745 Y112.965 E6.76085
G1 X89.902 Y112.378 E6.8121
G1 X89.882 Y112.362 E6.81338
G1 X89.077 Y111.619 E6.86803
G1 X88.478 Y110.983 E6.91162
G1 X87.966 Y110.381 E6.95105
G1 X87.516 Y109.727 E6.99065
G1 X87.002 Y108.893 E7.03953
G1 X86.867 Y108.647 E7.05353
G1 X86.167 Y108.817 E7.08947
G1 X85.384 Y108.925 E7.1289
G1 X84.595 Y108.953 E7.16829
G1 X83.807 Y108.901 E7.20769
G1 X82.886 Y108.737 E7.25436
G1 X81.453 Y108.392 E7.3279
G1 X80.696 Y108.169 E7.36727
G1 X79.965 Y107.87 E7.40667
G1 X79.268 Y107.499 E7.44606
G1 X78.939 Y107.278 E7.46584
G1 X78.202 Y107.157 E7.5031
G1 X77.44 Y106.951 E7.54248
G1 X77.241 Y106.875 E7.55311
G1 X76.689 Y106.792 E7.58096
G1 X75.924 Y106.597 E7.62034
G1 X74.937 Y106.278 E7.67209
G1 X74.069 Y105.884 E7.71965
G1 X73.85 Y105.768 E7.73201
G1 X73.172 Y105.363 E7.77141
G1 X72.72 Y105.038 E7.79919
G1 X72.564 Y104.917 E7.80904
G1 X71.966 Y104.402 E7.84841
G1 X71.422 Y103.83 E7.88779
G1 X71.126 Y103.462 E7.91135
G1 X70.78 Y103.005 E7.93995
G1 X70.336 Y102.352 E7.97935
G1 X69.96 Y101.658 E8.01873
G1 X69.656 Y100.929 E8.05813
G1 X69.428 Y100.173 E8.09753
G1 X69.245 Y99.252 E8.14437
G1 X69.144 Y98.468 E8.18381
G1 X69.122 Y97.679 E8.22319
G1 X69.18 Y96.892 E8.26256
G1 X69.396 Y95.805 E8.31785
G1 X69.531 Y95.311 E8.3434
G1 X69.777 Y94.561 E8.38278
G1 X70.098 Y93.839 E8.4222
G1 X70.491 Y93.154 E8.4616
G1 X70.971 Y92.486 E8.50264
G1 X71.194 Y92.208 E8.52042
G1 X71.718 Y91.618 E8.55979
G1 X72.3 Y91.084 E8.59919
G1 X72.933 Y90.612 E8.63859
G1 X73.64 Y90.19 E8.67966
G1 X74.901 Y89.525 E8.75079
G1 X75.617 Y89.192 E8.79018
G1 X76.363 Y88.934 E8.82956
G1 X77.132 Y88.752 E8.86899
G1 X77.914 Y88.649 E8.90834
G1 X78.704 Y88.626 E8.94777
G1 X79.491 Y88.682 E8.98713
G1 X80.257 Y88.816 E9.02593
G1 X80.838 Y88.734 E9.0552
G1 X81.596 Y88.517 E9.09454
G1 X82.374 Y88.377 E9.13398
G1 X82.849 Y88.341 E9.15774
G1 X81.701 Y83.494 E9.40625
G1 X81.558 Y82.718 E9.44562
G1 X81.494 Y81.931 E9.48501
G1 X81.511 Y81.141 E9.52443
G1 X81.607 Y80.357 E9.56384
G1 X81.782 Y79.587 E9.60323
G1 X82.034 Y78.839 E9.64261
G1 X82.522 Y77.822 E9.69889
G1 X82.601 Y77.684 E9.70682
G1 X83.027 Y77.019 E9.74622
G1 X83.519 Y76.401 E9.78563
G0 F3600 X83.845 Y76.636
G1 F1800 X84.386 Y76.089 E9.82402
G1 X84.981 Y75.601 E9.86241
G1 X85.623 Y75.178 E9.90077
G1 X86.306 Y74.823 E9.93917
G1 X87.232 Y74.475 E9.98852
G1 X88.11 Y74.21 E10.03428
G1 X88.857 Y74.026 E10.07266
G1 X89.619 Y73.921 E10.11103
G1 X90.387 Y73.895 E10.14937
G1 X91.155 Y73.95 E10.18779
G1 X91.912 Y74.084 E10.22614
G1 X92.651 Y74.295 E10.26448
G1 X93.365 Y74.582 E10.30287
G1 X93.791 Y74.804 E10.32684
G1 X93.926 Y74.76 E10.33392
G1 X94.677 Y74.597 E10.37226
G1 X95.442 Y74.513 E10.41066
G1 X95.803 Y74.503 E10.42868
G1 X95.953 Y74.448 E10.43665
G1 X96.902 Y74.176 E10.4859
G1 X97.652 Y74.003 E10.5243
G1 X98.415 Y73.909 E10.56265
G1 X99.184 Y73.894 E10.60103
G1 X99.95 Y73.959 E10.63938
G1 X100.576 Y74.079 E10.67118
G1 X100.638 Y74.062 E10.67439
G1 X101.397 Y73.938 E10.71276
G1 X102.165 Y73.894 E10.75113
G1 X102.934 Y73.93 E10.78954
G1 X103.694 Y74.045 E10.82789
G1 X104.347 Y74.21 E10.86149
G1 X105.224 Y74.475 E10.9072
G1 X105.296 Y74.501 E10.91102
G1 X105.877 Y74.501 E10.94
G1 X106.645 Y74.541 E10.97837
G1 X107.405 Y74.66 E11.01675
G1 X108.042 Y74.83 E11.04964
G1 X108.562 Y74.559 E11.0789
G1 X109.278 Y74.276 E11.11731
G1 X110.018 Y74.069 E11.15564
G1 X110.777 Y73.94 E11.19405
G1 X111.544 Y73.891 E11.2324
G1 X112.313 Y73.921 E11.27079
G1 X113.074 Y74.031 E11.30915
G1 X113.672 Y74.176 E11.33985
G1 X114.619 Y74.447 E11.38899
G1 X115.346 Y74.696 E11.42733
G1 X116.044 Y75.02 E11.46573
G1 X116.704 Y75.415 E11.5041
G1 X117.32 Y75.876 E11.54249
G1 X117.884 Y76.398 E11.58083
G1 X118.392 Y76.976 E11.61922
G1 X118.988 Y77.855 E11.6722
G1 X119.069 Y77.995 E11.68027
G1 X119.419 Y78.68 E11.71865
G1 X119.696 Y79.398 E11.75704
G1 X119.897 Y80.14 E11.79539
G1 X120.02 Y80.899 E11.83376
G1 X120.064 Y81.667 E11.87213
G1 X120.027 Y82.435 E11.91049
G1 X119.84 Y83.509 E11.96488
G1 X118.459 Y88.991 E12.24692
G1 X120.602 Y89.311 E12.35502
G1 X121.988 Y89.311 E12.42417
G1 X122.756 Y89.351 E12.46254
G1 X123.516 Y89.47 E12.50092
G1 X124.259 Y89.668 E12.53928
G1 X125.014 Y89.958 E12.57963
G1 X125.505 Y90.178 E12.60647
G1 X126.189 Y90.528 E12.64481
G1 X126.834 Y90.948 E12.68321
G1 X127.169 Y91.207 E12.70433
G1 X127.584 Y91.547 E12.7311
G1 X128.153 Y92.065 E12.76949
G1 X128.665 Y92.638 E12.80782
G1 X129.114 Y93.262 E12.84618
G1 X129.497 Y93.93 E12.88459
G1 X129.739 Y94.46 E12.91366
G1 X129.923 Y94.908 E12.93782
G1 X130.178 Y95.633 E12.97617
G1 X130.356 Y96.382 E13.01457
G1 X130.456 Y97.144 E13.05292
G1 X130.475 Y97.913 E13.09129
G1 X130.412 Y98.706 E13.13098
G1 X130.342 Y99.226 E13.15716
G1 X130.2 Y99.982 E13.19553
G1 X129.98 Y100.719 E13.23391
G1 X129.574 Y101.651 E13.28463
G1 X129.415 Y101.957 E13.30183
G1 X129.026 Y102.62 E13.34018
G1 X128.569 Y103.239 E13.37857
G1 X128.051 Y103.808 E13.41696
G1 X127.741 Y104.097 E13.4381
G1 X127.236 Y104.542 E13.47168
G1 X126.634 Y105.02 E13.51003
G1 X125.985 Y105.433 E13.54841
G1 X125.296 Y105.776 E13.58681
G1 X124.576 Y106.045 E13.62515
G1 X123.925 Y106.219 E13.65877
G1 X123.739 Y106.276 E13.66848
G1 X122.988 Y106.444 E13.70687
G1 X122.464 Y106.514 E13.73325
G1 X121.97 Y106.562 E13.75801
G1 X120.549 Y107.095 E13.83373
G1 X120.396 Y107.173 E13.84229
G1 X119.694 Y107.488 E13.88068
G1 X118.964 Y107.729 E13.91903
G1 X118.212 Y107.892 E13.95742
G1 X117.448 Y107.977 E13.99577
G1 X116.679 Y107.981 E14.03414
G1 X115.913 Y107.906 E14.07254
G1 X115.16 Y107.752 E14.11088
G1 X114.752 Y107.623 E14.13223
G1 X114.541 Y108.066 E14.15671
G1 X114.174 Y108.742 E14.19509
G1 X113.913 Y109.14 E14.21883
G1 X113.33 Y109.969 E14.26939
G1 X113.043 Y110.35 E14.29319
G1 X112.288 Y111.161 E14.34847
G1 X111.639 Y111.761 E14.39257
G1 X110.795 Y112.434 E14.44642
G1 X110.029 Y112.896 E14.49105
G1 X109.347 Y113.253 E14.52946
G1 X109.257 Y113.294 E14.53439
G1 X109.504 Y113.836 E14.56411
G1 X109.881 Y114.834 E14.61733
G1 X110.115 Y115.567 E14.65572
G1 X110.271 Y116.32 E14.69408
G1 X110.349 Y117.085 E14.73245
G1 X110.347 Y117.854 E14.77081
G1 X110.265 Y118.619 E14.8092
G1 X110.104 Y119.371 E14.84757
G1 X109.841 Y120.167 E14.88939
G1 X109.48 Y121.081 E14.93842
G1 X109.16 Y121.781 E14.97682
G1 X108.77 Y122.444 E15.01519
G1 X108.313 Y123.063 E15.05358
G1 X107.794 Y123.631 E15.09197
G1 X107.301 Y124.076 E15.1251
G1 X106.576 Y124.673 E15.17195
G1 X105.958 Y125.13 E15.2103
G1 X105.295 Y125.521 E15.2487
G1 X104.596 Y125.841 E15.28706
G1 X103.867 Y126.086 E15.32542
G1 X103.406 Y126.199 E15.3491
G1 X102.528 Y126.385 E15.39388
G1 X101.768 Y126.505 E15.43227
G1 X101 Y126.546 E15.47064
G1 X100.232 Y126.507 E15.509
G1 X99.512 Y126.396 E15.54535
G1 X98.788 Y126.248 E15.58221
G1 X98.043 Y126.055 E15.62061
G1 X97.323 Y125.786 E15.65896
G1 X96.634 Y125.443 E15.69735
G1 X95.86 Y124.94 E15.74341
G1 X95.119 Y124.39 E15.78945
G1 X94.526 Y123.9 E15.82782
G1 X93.987 Y123.351 E15.86621
G1 X93.508 Y122.75 E15.90455
G1 X93.094 Y122.101 E15.94296
G1 X92.749 Y121.414 E15.98131
G1 X92.541 Y120.884 E16.00972
G1 X92.184 Y119.86 E16.06382
G1 X91.969 Y119.122 E16.10217
G1 X91.832 Y118.365 E16.14055
G1 X91.774 Y117.598 E16.17892
G1 X91.796 Y116.829 E16.2173
G1 X91.898 Y116.067 E16.25566
G1 X92.078 Y115.319 E16.29404
G1 X92.266 Y114.765 E16.32323
G1 X92.621 Y113.843 E16.37252
G1 X92.728 Y113.561 E16.38757
G1 X92.1 Y113.288 E16.42173
G1 X91.579 Y113.002 E16.45138
G1 X90.951 Y112.623 E16.48798
G1 X90.152 Y112.065 E16.5366
G1 X90.132 Y112.049 E16.53788
G1 X89.368 Y111.345 E16.58971
G1 X88.769 Y110.709 E16.6333
G1 X88.272 Y110.122 E16.67167
G1 X87.856 Y109.518 E16.70826
G1 X87.342 Y108.684 E16.75713
G1 X87.057 Y108.163 E16.78676
G1 X86.57 Y108.317 E16.81224
G1 X85.816 Y108.471 E16.85064
G1 X85.051 Y108.546 E16.88899
G1 X84.282 Y108.541 E16.92735
G1 X83.517 Y108.457 E16.96575
G1 X82.98 Y108.348 E16.99309
G1 X81.547 Y108.003 E17.06662
G1 X80.809 Y107.785 E17.10501
G1 X80.099 Y107.491 E17.14335
G1 X79.422 Y107.125 E17.18175
G1 X79.026 Y106.887 E17.2048
G1 X78.267 Y106.762 E17.24317
G1 X77.526 Y106.558 E17.28152
G1 X77.34 Y106.485 E17.29149
G1 X76.749 Y106.396 E17.3213
G1 X76.004 Y106.203 E17.3597
G1 X75.773 Y106.13 E17.37179
G1 X75.042 Y105.89 E17.41017
G1 X74.256 Y105.53 E17.4533
G1 X74.037 Y105.414 E17.46567
G1 X73.377 Y105.019 E17.50404
G1 X72.966 Y104.722 E17.52934
G1 X72.81 Y104.601 E17.53919
G1 X72.227 Y104.099 E17.57757
G1 X71.7 Y103.539 E17.61594
G1 X71.445 Y103.221 E17.63627
G1 X71.099 Y102.764 E17.66487
G1 X70.667 Y102.127 E17.70327
G1 X70.304 Y101.449 E17.74164
G1 X70.013 Y100.737 E17.78001
G1 X69.797 Y99.999 E17.81837
G1 X69.639 Y99.18 E17.85999
G1 X69.541 Y98.417 E17.89837
G1 X69.523 Y97.648 E17.93674
G1 X69.585 Y96.882 E17.97508
G1 X69.782 Y95.91 E18.02456
G1 X69.917 Y95.416 E18.05011
G1 X70.158 Y94.686 E18.08847
G1 X70.473 Y93.984 E18.12685
G1 X70.86 Y93.32 E18.1652
G1 X71.283 Y92.737 E18.20113
G1 X71.506 Y92.459 E18.21891
G1 X72.017 Y91.885 E18.25725
G1 X72.586 Y91.367 E18.29564
G1 X73.205 Y90.91 E18.33403
G1 X73.826 Y90.543 E18.37002
G1 X75.087 Y89.878 E18.44114
G1 X75.785 Y89.555 E18.47951
G1 X76.513 Y89.307 E18.51788
G1 X77.263 Y89.135 E18.55627
G1 X78.026 Y89.042 E18.59462
G1 X78.795 Y89.028 E18.63299
G1 X79.562 Y89.095 E18.6714
G1 X80.228 Y89.224 E18.70524
G1 X80.943 Y89.123 E18.74127
G1 X80.985 Y89.106 E18.74353
G1 X81.726 Y88.897 E18.78194
G1 X82.484 Y88.767 E18.82031
G1 X83.251 Y88.716 E18.85866
G1 X83.349 Y88.72 E18.86355
G1 X82.09 Y83.402 E19.1362
G1 X81.952 Y82.645 E19.17459
G1 X81.893 Y81.879 E19.21292
G1 X81.914 Y81.11 E19.2513
G1 X82.015 Y80.347 E19.2897
G1 X82.195 Y79.599 E19.32808
G1 X82.451 Y78.874 E19.36644
G1 X82.869 Y78.021 E19.41383
G1 X82.948 Y77.883 E19.42177
G1 X83.364 Y77.236 E19.46014
G1 X83.845 Y76.636 E19.49851
G0 F3600 X84.171 Y76.871
G1 F1800 X84.701 Y76.343 E19.53583
G1 X85.285 Y75.875 E19.57317
G1 X85.914 Y75.471 E19.61047
G1 X86.584 Y75.137 E19.64782
G1 X87.347 Y74.858 E19.68835
G1 X88.225 Y74.593 E19.7341
G1 X88.952 Y74.415 E19.77144
G1 X89.694 Y74.316 E19.80879
G1 X90.441 Y74.297 E19.84607
G1 X91.187 Y74.357 E19.88341
G1 X91.922 Y74.497 E19.92074
G1 X92.638 Y74.715 E19.95808
G1 X93.326 Y75.007 E19.99537
G1 X93.757 Y75.237 E20.01974
G1 X94.13 Y75.12 E20.03924
G1 X94.863 Y74.973 E20.07654
G1 X95.872 Y74.901 E20.12701
G1 X96.063 Y74.833 E20.13712
G1 X97.012 Y74.561 E20.18637
G1 X97.741 Y74.394 E20.22369
